svg/outline/mastercard.svg

<svg height="471" viewBox="0 0 750 471" width="750" xmlns="http://www.w3.org/2000/svg"><g fill="#393939"><path d="m697.115385 471h-644.2307696c-29.194186-.031088-52.8528192-23.162714-52.8846154-51.706587v-367.5868262c.0317962-28.5438724 23.6904294-51.67549887 52.8846154-51.7065868h644.2307696c29.194186.03108793 52.852819 23.1627144 52.884615 51.7065868v367.5868262c-.031796 28.543873-23.690429 51.675499-52.884615 51.706587zm-644.2307696-442.7964072c-13.2760757 0-24.0384616 10.5226489-24.0384616 23.502994v367.5868262c0 12.980345 10.7623859 23.502994 24.0384616 23.502994h644.2307696c13.276075 0 24.038461-10.522649 24.038461-23.502994v-367.5868262c0-12.9803451-10.762386-23.502994-24.038461-23.502994z"/><g transform="translate(159 64)"><path d="m74.2545763 342.003051v-22.744068c0-8.722373-5.3084746-14.406102-14.0216949-14.406102-4.5762712 0-9.4728814 1.519322-12.8867797 6.40678-2.6542373-4.173559-6.4067797-6.40678-12.1271186-6.40678-4.3200779-.186704-8.4454777 1.807239-10.9830509 5.308475v-4.576271h-7.2030508v36.390508h7.2030508v-20.822034c0-6.406779 3.7891525-9.472881 9.0976271-9.472881s8.3379661 3.413898 8.3379661 9.472881v20.849492h7.2030509v-20.849492c0-6.406779 3.7891525-9.472881 9.0976271-9.472881s8.3379661 3.413898 8.3379661 9.472881v20.849492zm118.2691527-36.015254h-13.271187v-10.983051h-7.184745v10.983051h-7.578305v6.406779h7.578305v17.096949c0 8.337967 3.029491 13.271187 12.127118 13.271187 3.44665-.071863 6.823816-.982913 9.838983-2.654237l-2.278983-6.40678c-2.044966 1.278204-4.416582 1.93628-6.827796 1.894576-3.789153 0-5.683729-2.278983-5.683729-6.068135v-17.426441h13.271186v-6.068136zm67.472542-1.134916c-3.991098-.08892-7.734964 1.927275-9.857288 5.308475v-4.576271h-7.203051v36.390508h7.203051v-20.437627c0-6.068135 3.029492-9.857288 7.962712-9.857288 1.664673.06753 3.316442.322357 4.924068.759661l2.278983-6.827797c-1.738056-.438168-3.517286-.692782-5.308475-.759661zm-101.968474 3.789153c-3.789153-2.654237-9.097628-3.789153-14.781356-3.789153-9.097627 0-14.781356 4.17356-14.781356 11.376611 0 6.068135 4.173559 9.472881 12.127118 10.616949l3.789153.375254c4.173559.759661 6.827797 2.278983 6.827797 4.173559 0 2.654238-3.029492 4.576271-8.722373 4.576271-4.346884.089435-8.604407-1.24084-12.127119-3.789152l-3.789153 5.683729c5.308475 3.789152 11.751865 4.576271 15.559323 4.576271 10.616949 0 16.300677-4.924068 16.300677-11.751865 0-6.406779-4.576271-9.472881-12.511525-10.616949l-3.789152-.375254c-3.413899-.375254-6.40678-1.519322-6.40678-3.789152 0-2.654238 3.029491-4.576272 7.203051-4.576272 4.576271 0 9.097627 1.894577 11.37661 3.029492zm109.931186 15.165763c0 10.98305 7.203051 18.954915 18.954915 18.954915 5.308475 0 9.097627-1.134915 12.88678-4.173559l-3.789153-5.683729c-2.682831 2.172704-6.020814 3.375667-9.472881 3.413898-6.40678 0-11.37661-4.924068-11.37661-12.127119 0-7.20305 4.905763-12.090508 11.37661-12.090508 3.452067.03823 6.79005 1.241194 9.472881 3.413898l3.789153-5.683729c-3.789153-3.029491-7.578305-4.173559-12.88678-4.173559-11.37661-.759661-18.954915 7.203051-18.954915 18.195254zm-50.79661-18.954916c-10.616949 0-17.82 7.578305-17.82 18.954916 0 11.37661 7.578305 18.954915 18.570508 18.954915 5.347625.11295 10.569801-1.626698 14.781356-4.924068l-3.789152-5.308475c-3.045845 2.360206-6.765012 3.687564-10.616949 3.789153-4.924068 0-10.232543-3.029491-10.983051-9.472881h26.917627v-3.029492c0-11.37661-6.827797-18.954915-17.060339-18.954915zm-.375254 6.827797c5.308474 0 9.097627 3.413898 9.472881 9.097627h-19.705424c1.134916-5.308474 4.576271-9.097627 10.232543-9.097627zm-98.179322 12.127119v-18.195255h-7.203051v4.576272c-2.654238-3.413899-6.40678-5.308475-11.7518646-5.308475-10.2325424 0-17.82 7.962712-17.82 18.954915 0 10.992204 7.578305 18.954915 17.82 18.954915 5.3084746 0 9.0976266-1.894576 11.7518646-5.308474v4.576271h7.203051zm-29.187458 0c0-6.827797 4.1735593-12.127119 11.37661-12.127119 6.827797 0 10.983051 5.308475 10.983051 12.127119 0 7.20305-4.576271 12.127118-10.983051 12.127118-7.2030507.375254-11.37661-5.308474-11.37661-12.127118zm280.141017-18.954916c-3.991099-.08892-7.734964 1.927275-9.857288 5.308475v-4.576271h-7.203051v36.390508h7.193898v-20.437627c0-6.068135 3.029492-9.857288 7.962712-9.857288 1.664673.06753 3.316442.322357 4.924068.759661l2.278983-6.827797c-1.738056-.438168-3.517286-.692782-5.308475-.759661zm-28.052542 18.954916v-18.195255h-7.203051v4.576272c-2.654238-3.413899-6.40678-5.308475-11.751865-5.308475-10.232542 0-17.82 7.962712-17.82 18.954915 0 10.992204 7.578305 18.954915 17.82 18.954915 5.308475 0 9.097627-1.894576 11.751865-5.308474v4.576271h7.203051zm-29.187458 0c0-6.827797 4.173559-12.127119 11.37661-12.127119 6.827797 0 10.983051 5.308475 10.983051 12.127119 0 7.20305-4.576271 12.127118-10.983051 12.127118-7.203051.375254-11.37661-5.308474-11.37661-12.127118zm102.352881 0v-32.601356h-7.203051v18.954915c-2.654237-3.413898-6.406779-5.308475-11.751864-5.308475-10.232542 0-17.82 7.962712-17.82 18.954916 0 10.992203 7.578305 18.954915 17.82 18.954915 5.308475 0 9.097627-1.894576 11.751864-5.308475v4.576271h7.203051zm-29.187457 0c0-6.827797 4.173559-12.127119 11.37661-12.127119 6.827796 0 10.983051 5.308475 10.983051 12.127119 0 7.20305-4.576272 12.127118-10.983051 12.127118-7.212204.384407-11.385763-5.299322-11.385763-12.127118z"/><path d="m391.564068 40.4084746c-47.089784-47.11725268-121.3391-53.291148-175.564068-14.5983051-41.586752-29.63007771-96.242011-33.54513526-141.6274134-10.1450342-45.385402 23.4001011-73.89570414 70.1942004-73.87834931 121.2568987-.01735483 51.062698 28.49294731 97.856797 73.87834931 121.256898 45.3854024 23.400102 100.0406614 19.485044 141.6274134-10.145034 41.586752 29.630078 96.242011 33.545136 141.627413 10.145034 45.385402-23.400101 73.895705-70.1942 73.87835-121.256898.108577-36.214131-14.273714-70.96694-39.941695-96.5135594zm-175.564068 186.0254234c-25.617956-22.6905-40.2837-55.271659-40.2837-89.493559s14.665744-66.8030595 40.2837-89.4935593c25.601785 22.6998632 40.255816 55.2775523 40.255816 89.4935593s-14.654031 66.793696-40.255816 89.493559zm-79.041356 29.837288c-65.8944975 0-119.3125423-53.418044-119.3125423-119.312542 0-65.8944975 53.4180448-119.3125423 119.3125423-119.3125423 23.11293-.0678316 45.73375 6.6744843 65.037966 19.3850847-27.697474 25.85373-43.422539 62.0431774-43.422539 99.9320336 0 37.888857 15.725065 74.078304 43.422539 99.932034-19.30523 12.70737-41.925974 19.44648-65.037966 19.375932zm158.082712 0c-23.090493.067907-45.690388-6.661132-64.983051-19.348474 27.683975-25.866936 43.398927-62.057759 43.398927-99.945763 0-37.8880036-15.714952-74.0788266-43.398927-99.9457626 19.304216-12.7106004 41.925036-19.4529163 65.037966-19.3850847 65.894497.000001 119.312541 53.4180454 119.312541 119.3125423 0 65.894497-53.418044 119.312541-119.312541 119.312542z"/></g></g></svg>

<svg width="750" height="471" viewBox="0 0 750 471" version="1.1" xmlns="http://www.w3.org/2000/svg" xmlns:xlink="http://www.w3.org/1999/xlink">
    <!-- Generator: Sketch 48.2 (47327) - http://www.bohemiancoding.com/sketch -->
    <desc>Created with Sketch.</desc>
    <defs></defs>
    <g id="Page-1" stroke="none" stroke-width="1" fill="none" fill-rule="evenodd">
        <g id="mastercard" fill="#393939" fill-rule="nonzero">
            <path d="M697.115385,471 L52.8846154,471 C23.6904294,470.968912 0.0317962011,447.837286 0,419.293413 L0,51.7065868 C0.0317962011,23.1627144 23.6904294,0.0310879264 52.8846154,0 L697.115385,0 C726.309571,0.0310879264 749.968204,23.1627144 750,51.7065868 L750,419.293413 C749.968204,447.837286 726.309571,470.968912 697.115385,471 Z M52.8846154,28.2035928 C39.6085397,28.2035928 28.8461538,38.7262417 28.8461538,51.7065868 L28.8461538,419.293413 C28.8461538,432.273758 39.6085397,442.796407 52.8846154,442.796407 L697.115385,442.796407 C710.39146,442.796407 721.153846,432.273758 721.153846,419.293413 L721.153846,51.7065868 C721.153846,38.7262417 710.39146,28.2035928 697.115385,28.2035928 L52.8846154,28.2035928 Z" id="Shape"></path>
            <g id="Group" transform="translate(159.000000, 64.000000)">
                <path d="M74.2545763,342.003051 L74.2545763,319.258983 C74.2545763,310.53661 68.9461017,304.852881 60.2328814,304.852881 C55.6566102,304.852881 50.76,306.372203 47.3461017,311.259661 C44.6918644,307.086102 40.939322,304.852881 35.2189831,304.852881 C30.8989052,304.666177 26.7735054,306.66012 24.2359322,310.161356 L24.2359322,305.585085 L17.0328814,305.585085 L17.0328814,341.975593 L24.2359322,341.975593 L24.2359322,321.153559 C24.2359322,314.74678 28.0250847,311.680678 33.3335593,311.680678 C38.6420339,311.680678 41.6715254,315.094576 41.6715254,321.153559 L41.6715254,342.003051 L48.8745763,342.003051 L48.8745763,321.153559 C48.8745763,314.74678 52.6637288,311.680678 57.9722034,311.680678 C63.280678,311.680678 66.3101695,315.094576 66.3101695,321.153559 L66.3101695,342.003051 L74.2545763,342.003051 Z M192.523729,305.987797 L179.252542,305.987797 L179.252542,295.004746 L172.067797,295.004746 L172.067797,305.987797 L164.489492,305.987797 L164.489492,312.394576 L172.067797,312.394576 L172.067797,329.491525 C172.067797,337.829492 175.097288,342.762712 184.194915,342.762712 C187.641565,342.690849 191.018731,341.779799 194.033898,340.108475 L191.754915,333.701695 C189.709949,334.979899 187.338333,335.637975 184.927119,335.596271 C181.137966,335.596271 179.24339,333.317288 179.24339,329.528136 L179.24339,312.101695 L192.514576,312.101695 L192.514576,306.033559 L192.523729,305.987797 Z M259.996271,304.852881 C256.005173,304.763961 252.261307,306.780156 250.138983,310.161356 L250.138983,305.585085 L242.935932,305.585085 L242.935932,341.975593 L250.138983,341.975593 L250.138983,321.537966 C250.138983,315.469831 253.168475,311.680678 258.101695,311.680678 C259.766368,311.748208 261.418137,312.003035 263.025763,312.440339 L265.304746,305.612542 C263.56669,305.174374 261.78746,304.91976 259.996271,304.852881 Z M158.027797,308.642034 C154.238644,305.987797 148.930169,304.852881 143.246441,304.852881 C134.148814,304.852881 128.465085,309.026441 128.465085,316.229492 C128.465085,322.297627 132.638644,325.702373 140.592203,326.846441 L144.381356,327.221695 C148.554915,327.981356 151.209153,329.500678 151.209153,331.395254 C151.209153,334.049492 148.179661,335.971525 142.48678,335.971525 C138.139896,336.06096 133.882373,334.730685 130.359661,332.182373 L126.570508,337.866102 C131.878983,341.655254 138.322373,342.442373 142.129831,342.442373 C152.74678,342.442373 158.430508,337.518305 158.430508,330.690508 C158.430508,324.283729 153.854237,321.217627 145.918983,320.073559 L142.129831,319.698305 C138.715932,319.323051 135.723051,318.178983 135.723051,315.909153 C135.723051,313.254915 138.752542,311.332881 142.926102,311.332881 C147.502373,311.332881 152.023729,313.227458 154.302712,314.362373 L158.027797,308.642034 Z M267.958983,323.807797 C267.958983,334.790847 275.162034,342.762712 286.913898,342.762712 C292.222373,342.762712 296.011525,341.627797 299.800678,338.589153 L296.011525,332.905424 C293.328694,335.078128 289.990711,336.281091 286.538644,336.319322 C280.131864,336.319322 275.162034,331.395254 275.162034,324.192203 C275.162034,316.989153 280.067797,312.101695 286.538644,312.101695 C289.990711,312.139925 293.328694,313.342889 296.011525,315.515593 L299.800678,309.831864 C296.011525,306.802373 292.222373,305.658305 286.913898,305.658305 C275.537288,304.898644 267.958983,312.861356 267.958983,323.853559 L267.958983,323.807797 Z M217.162373,304.852881 C206.545424,304.852881 199.342373,312.431186 199.342373,323.807797 C199.342373,335.184407 206.920678,342.762712 217.912881,342.762712 C223.260506,342.875662 228.482682,341.136014 232.694237,337.838644 L228.905085,332.530169 C225.85924,334.890375 222.140073,336.217733 218.288136,336.319322 C213.364068,336.319322 208.055593,333.289831 207.305085,326.846441 L234.222712,326.846441 L234.222712,323.816949 C234.222712,312.440339 227.394915,304.862034 217.162373,304.862034 L217.162373,304.852881 Z M216.787119,311.680678 C222.095593,311.680678 225.884746,315.094576 226.26,320.778305 L206.554576,320.778305 C207.689492,315.469831 211.130847,311.680678 216.787119,311.680678 Z M118.607797,323.807797 L118.607797,305.612542 L111.404746,305.612542 L111.404746,310.188814 C108.750508,306.774915 104.997966,304.880339 99.6528814,304.880339 C89.420339,304.880339 81.8328814,312.843051 81.8328814,323.835254 C81.8328814,334.827458 89.4111864,342.790169 99.6528814,342.790169 C104.961356,342.790169 108.750508,340.895593 111.404746,337.481695 L111.404746,342.057966 L118.607797,342.057966 L118.607797,323.807797 Z M89.420339,323.807797 C89.420339,316.98 93.5938983,311.680678 100.796949,311.680678 C107.624746,311.680678 111.78,316.989153 111.78,323.807797 C111.78,331.010847 107.203729,335.934915 100.796949,335.934915 C93.5938983,336.310169 89.420339,330.626441 89.420339,323.807797 Z M369.561356,304.852881 C365.570257,304.763961 361.826392,306.780156 359.704068,310.161356 L359.704068,305.585085 L352.501017,305.585085 L352.501017,341.975593 L359.694915,341.975593 L359.694915,321.537966 C359.694915,315.469831 362.724407,311.680678 367.657627,311.680678 C369.3223,311.748208 370.974069,312.003035 372.581695,312.440339 L374.860678,305.612542 C373.122622,305.174374 371.343392,304.91976 369.552203,304.852881 L369.561356,304.852881 Z M341.508814,323.807797 L341.508814,305.612542 L334.305763,305.612542 L334.305763,310.188814 C331.651525,306.774915 327.898983,304.880339 322.553898,304.880339 C312.321356,304.880339 304.733898,312.843051 304.733898,323.835254 C304.733898,334.827458 312.312203,342.790169 322.553898,342.790169 C327.862373,342.790169 331.651525,340.895593 334.305763,337.481695 L334.305763,342.057966 L341.508814,342.057966 L341.508814,323.807797 Z M312.321356,323.807797 C312.321356,316.98 316.494915,311.680678 323.697966,311.680678 C330.525763,311.680678 334.681017,316.989153 334.681017,323.807797 C334.681017,331.010847 330.104746,335.934915 323.697966,335.934915 C316.494915,336.310169 312.321356,330.626441 312.321356,323.807797 Z M414.674237,323.807797 L414.674237,291.206441 L407.471186,291.206441 L407.471186,310.161356 C404.816949,306.747458 401.064407,304.852881 395.719322,304.852881 C385.48678,304.852881 377.899322,312.815593 377.899322,323.807797 C377.899322,334.8 385.477627,342.762712 395.719322,342.762712 C401.027797,342.762712 404.816949,340.868136 407.471186,337.454237 L407.471186,342.030508 L414.674237,342.030508 L414.674237,323.807797 Z M385.48678,323.807797 C385.48678,316.98 389.660339,311.680678 396.86339,311.680678 C403.691186,311.680678 407.846441,316.989153 407.846441,323.807797 C407.846441,331.010847 403.270169,335.934915 396.86339,335.934915 C389.651186,336.319322 385.477627,330.635593 385.477627,323.807797 L385.48678,323.807797 Z" id="Shape"></path>
                <path d="M391.564068,40.4084746 C344.474284,-6.70877808 270.224968,-12.8826734 216,25.8101695 C174.413248,-3.81990821 119.757989,-7.73496576 74.3725866,15.6651353 C28.9871846,39.0652364 0.476882456,85.8593357 0.494237288,136.922034 C0.476882456,187.984732 28.9871846,234.778831 74.3725866,258.178932 C119.757989,281.579034 174.413248,277.663976 216,248.033898 C257.586752,277.663976 312.242011,281.579034 357.627413,258.178932 C403.012815,234.778831 431.523118,187.984732 431.505763,136.922034 C431.61434,100.707903 417.232049,65.955094 391.564068,40.4084746 Z M216,226.433898 C190.382044,203.743398 175.7163,171.162239 175.7163,136.940339 C175.7163,102.718439 190.382044,70.1372795 216,47.4467797 C241.601785,70.1466429 256.255816,102.724332 256.255816,136.940339 C256.255816,171.156346 241.601785,203.734035 216,226.433898 Z M136.958644,256.271186 C71.0641465,256.271186 17.6461017,202.853142 17.6461017,136.958644 C17.6461017,71.0641465 71.0641465,17.6461017 136.958644,17.6461017 C160.071574,17.5782701 182.692394,24.320586 201.99661,37.0311864 C174.299136,62.8849164 158.574071,99.0743638 158.574071,136.96322 C158.574071,174.852077 174.299136,211.041524 201.99661,236.895254 C182.69138,249.602624 160.070636,256.341734 136.958644,256.271186 Z M295.041356,256.271186 C271.950863,256.339093 249.350968,249.610054 230.058305,236.922712 C257.74228,211.055776 273.457232,174.864953 273.457232,136.976949 C273.457232,99.0889454 257.74228,62.8981224 230.058305,37.0311864 C249.362521,24.320586 271.983341,17.5782701 295.096271,17.6461017 C360.990768,17.6461027 414.408812,71.0641471 414.408812,136.958644 C414.408812,202.853141 360.990768,256.271185 295.096271,256.271186 L295.041356,256.271186 Z" id="Shape"></path>
            </g>
        </g>
    </g>
</svg>
